X: 35
T: the HEALTH
B: FIFTY OLD ENGLISH FOLK DANCE AIRS", Edgar H. Hunt ed., Schott & Co. Ltd. pub., London 1939
Z: 2004-2014 John Chambers <jc:trillian.mit.edu>
M: 2/2
L: 1/4
K: G
(B/c/) |\
dd d>c | B G2 (c/d/) | ee (B>c) | d3 (A/B/) |\
cc BA | B2 AG | AB (A>G) | G3 |]

%%sep 1 1 500
%%sep 1 1 500
